X: 22337
T: La Vanderina
R: jig
M: 6/8
K: Cmajor
E|:SA2cB2E|A3ABc|d2B Bcd|e2cA2E|
A2cB2E|A3f2f|efedcB|1 A3 z2 E:|2 A3 zzG/G/|
|:GAB cde|e2e ezG/G/|GAB cde|g2g gzG/G/|GAB cde|
a3 g^fg|bag fed|1 c3czG/G/:|2 c3czE||!coda!c3 c3|c6||

